X:1
T:Title
%%score ( 1 2 ) { ( 3 5 ) | ( 4 6 ) }
L:1/8
Q:1/4=100
M:4/4
K:E
V:1 treble nm="Grand Piano, Soprano"
V:2 treble 
V:3 bass nm="Choir Pad, New Prince, New Pomp"
V:5 bass 
V:4 bass 
V:6 bass 
V:1
 =GA [EB]2 FG E2 | =GABA D-[DG] E2 | [DF]2 [E=G]2 B,-[B,F] [EG]2 | [E^B]2 [E=B]6 | %4
w: By~Christmas~Carols~New~&~Old,~1878 * * * * *||||
 [FA][=GB] [A^B]2 =BA [EB]2 | A=G [FA]2 [FB]2 G2 | [=Ge]2 =d2 cB [Bc]2 | ^A2 B6 | %8
w: ||||
 [FB]2 B2- B/ z/ c [F=d]2 | [F=d]2 A=G AB [=E^B]2 | [E^B]2 [D=G]2 GF [=DG]2 | [FA]2 [=GB]6 | %12
w: ||||
 [=GB]2 [EA]2 [EA]2 [EG]2 | [EB]2 A-[=DA] A-[FA] [E=G]2 | [Ee]2 B2 A=G A2 | B2 E6 | %16
w: ||||
 =GA [EB]2 FG E2 | =GABA D-[DG] E2 | [DF]2 [E=G]2 B,-[B,F] [EG]2 | [E^B]2 [E=B]6 | %20
w: ||||
 [FA][=GB] [A^B]2 =BA [EB]2 | A=G [FA]2 [FB]2 G2 | [=Ge]2 =d2 cB [Bc]2 | ^A2 B6 | %24
w: ||||
 [FB]2 B2- B/ z/ c [F=d]2 | [F=d]2 A=G AB [=E^B]2 | [E^B]2 [D=G]2 GF [=DG]2 | [FA]2 [=GB]6 | %28
w: ||||
 [=GB]2 [EA]2 [EA]2 [EG]2 | [EB]2 A-[=DA] A-[FA] [E=G]2 | [Ee]2 B2 A=G A2 | B2 E6 | %32
w: ||||
 GA [EB]2 FG E2 | GABA D-[DG] E2 | [DF]2 [EG]2 B,-[B,F] [EG]2 | [Ec]2 [EB]6 | %36
w: ||||
 [FA][GB] [Ac]2 BA [EB]2 | AG [FA]2 [FB]2 G2 | [Ge]2 dc B2 [Bc]2 | [^Ac]2 B6 | %40
w: ||||
 [FB]2 B2- B/ z/ c [F=d]2 | [F=d]2 A=G AB [=E^B]2 | [E^B]2 [E=G]2 GF [EG]2 | [EA]2 [DB]6 | %44
w: ||||
 [FB]2 [EA]2 [EA]2 [EG]2 | [EB]2 A-[DA] A-[FA] [EG]2 | [Ee]2 B2 A[EG] [EF]2 | [DG]2 E6 | %48
w: ||||
 [B,E]2 [CF]2 [DB]2 [EG]2 | [B,E]2 [CF]2 [DB]2 [EG]2 | [DA]2 [EB]2 [Ac]2 [GB]2 | [FA][EG] [DF]6 | %52
w: ||||
 [EG]2 [EA]2 GF [B,G]2 | [EA]2 [EB]2 E2 [Ec]2 | [DB]2 EF [EG]2 [EF]2 | [DF]2 E6- | E2 z2 z4 |] %57
w: |||||
V:2
 E2 z2 D2 z2 | E2 F2 .F2 z2 | z4 .E2 z2 | x8 | z4 F2 z2 | E2 z2 z4 | z2 .F4 z2 | x8 | %8
 z2 =G2 G2 z2 | z2 ^E2 E2 z2 | z4 D2 z2 | x8 | x8 | z2 .E2 .E2 z2 | x8 | x8 | E2 z2 D2 z2 | %17
 E2 F2 .F2 z2 | z4 .E2 z2 | x8 | z4 F2 z2 | E2 z2 z4 | z2 .F4 z2 | x8 | z2 =G2 G2 z2 | %25
 z2 ^E2 E2 z2 | z4 D2 z2 | x8 | x8 | z2 .E2 .E2 z2 | x8 | x8 | D2 z2 D2 z2 | E2 F2 .F2 z2 | %34
 z4 .E2 z2 | x8 | z4 F2 z2 | E2 z2 z4 | z2 F2 z4 | x8 | z2 =G2 G2 z2 | z2 ^E2 E2 z2 | z4 ^B,2 z2 | %43
 x8 | x8 | z2 .E2 .E2 z2 | z2 .E4 z2 | x8 | x8 | x8 | x8 | x8 | z4 B,2 z2 | x8 | x8 | x8 | x8 |] %57
V:3
 E,F, =G,2 A,2 G,2 | B,2 ^B,2 =B,2 =G,2 | B,2 B,2 E2 B,2 | A,2 =G,6 | E2 E2 ^B,2 =B,2 | %5
 B,2 ^B,2 =B,2 B,2 | B,2 z2[K:treble] F2 F2 | E2 D6 | D2 ^B,2[K:bass] z E, A,2 | %9
 A,2 =D2 z =D, =G,2 | =G,2[K:treble] .^B,4 =D2 | ^B,2 =D6 | =D2 ^B,2 B,2[K:bass] =B,2 | %13
 B,2 ^B,2 B,2 =B,2 | E2 B,2 A,=G, A,2 | B,2 E,6 | E,F, =G,2 A,2 G,2 | B,2 ^B,2 =B,2 =G,2 | %18
 B,2 B,2 E2 B,2 | A,2 =G,6 | E2 E2 ^B,2 =B,2 | B,2 ^B,2 =B,2 B,2 | B,2 z2[K:treble] F2 F2 | E2 D6 | %24
 D2 ^B,2[K:bass] z E, A,2 | A,2 =D2 z =D, =G,2 | =G,2[K:treble] .^B,4 =D2 | ^B,2 =D6 | %28
 =D2 ^B,2 B,2[K:bass] =B,2 | B,2 ^B,2 B,2 =B,2 | E2 B,2 A,=G, A,2 | B,2 E,6 | E,F, G,2 A,2 G,2 | %33
 B,2 C2 B,2 G,2 | B,2 B,2 E2 B,2 | A,2 G,6 | E2 E2 C2 B,2 | B,2 C2 B,2 B,2 | %38
 B,2 z2[K:treble] F2 F2 | E2 D6 | D2 E2[K:bass] z E, A,2 | A,2 =D2 ^E,2 =G,2 | %42
 =G,2[K:treble] ^B,2 E=D B,2 | A,2[K:bass] F,6 | D2 C2 C2 B,2 | B,2[K:treble] C2 C2 B,2 | %46
 C2 B,2 C[K:bass]B, A,2 | B,2 G,6 | G,2 A,2 F,2 B,2 | G,2 A,2 F,2 B,2 | A,2 G,2[K:treble] D2 E2 | %51
 C2 D6 | B,2 C2[K:bass] B,2 B,2 | A,2 G,2 =D2 C2 | F,2 E,2 B,2 B,2- | B,2 G,6- | G,2 z2 z4 |] %57
V:4
 z2 E,2 E,2 E,2 | E,2 A,,2 B,,2 E,2 | B,,2 E,2 =G,2 E,2 | ^B,,=D, E,6 | E,2 A,2 A,2 =G,2 | %5
 E,2 E,2 D,2 E,2 | =G,A, B,2 =D,2 F,2 | F,2 B,,6 | B,,2 .E,4 =D,2 | =D,2 .D,4 ^B,,2 | %10
 ^B,,2 B,,2 z ^B, =B,,2 | A,,2 =G,,6 | A,,B,,^B,,=B,, ^B,,=D, E,2 | =G,2 A,2 A,,2 E,2 | %14
 E,2 B,,2 A,,=G,, A,,2 | B,,2 E,,6 | z2 E,2 E,2 E,2 | E,2 A,,2 B,,2 E,2 | B,,2 E,2 =G,2 E,2 | %19
 ^B,,=D, E,6 | E,2 A,2 A,2 =G,2 | E,2 E,2 D,2 E,2 | =G,A, B,2 =D,2 F,2 | F,2 B,,6 | %24
 B,,2 .E,4 =D,2 | =D,2 .D,4 ^B,,2 | ^B,,2 B,,2 z ^B, =B,,2 | A,,2 =G,,6 | %28
 A,,B,,^B,,=B,, ^B,,=D, E,2 | =G,2 A,2 A,,2 E,2 | E,2 B,,2 A,,=G,, A,,2 | B,,2 E,,6 | %32
 z2 E,2 E,2 E,2 | E,2 A,,2 B,,2 E,2 | B,,2 E,2 G,2 E,2 | C,D, E,6 | E,2 A,2 A,2 G,2 | %37
 E,2 E,2 D,2 E,2 | G,A, B,2 D,2 F,2 | F,2 B,,6 | B,,2 .E,4 =D,2 | =D,2 D,2 D,2 ^B,,2 | %42
 ^B,,2 B,,2- B,,/ z/ B,, B,,2 | ^B,,2 =B,,6 | B,,2 C,B,, C,D, E,2 | G,2 A,2 A,,2 E,2 | %46
 C,2 G,,2 A,,2 B,,2 | B,,2 E,6 | E,2 E,2 E,2 E,2 | E,2 E,2 E,2 E,2 | F,2 z2 F,2 G,2 | A,2 B,6 | %52
 E,2 C,2 D,2 E,2 | C,2 G,,2 G,,2 A,,2 | B,,2 C,2 G,,A,, B,,2 | z A, E,6- | E,2 z2 z4 |] %57
V:5
 x8 | x8 | x8 | x8 | x8 | x8 | x4[K:treble] x4 | x8 | z4[K:bass] =G,2 z2 | z4 ^E,2 z2 | %10
 x2[K:treble] x6 | x8 | x6[K:bass] x2 | x8 | x8 | x8 | x8 | x8 | x8 | x8 | x8 | x8 | %22
 x4[K:treble] x4 | x8 | z4[K:bass] =G,2 z2 | z4 ^E,2 z2 | x2[K:treble] x6 | x8 | x6[K:bass] x2 | %29
 x8 | x8 | x8 | x8 | x8 | x8 | x8 | x8 | x8 | x4[K:treble] x4 | x8 | z4[K:bass] =G,2 z2 | x8 | %42
 x2[K:treble] x6 | x2[K:bass] x6 | x8 | x2[K:treble] x6 | x5[K:bass] x3 | x8 | x8 | x8 | %50
 x4[K:treble] x4 | x8 | x4[K:bass] x4 | x8 | x8 | x8 | x8 |] %57
V:6
 x8 | x8 | x8 | x8 | x8 | x8 | x8 | x8 | x8 | x8 | z4 ^B,,2 z2 | x8 | x8 | x8 | x8 | x8 | x8 | x8 | %18
 x8 | x8 | x8 | x8 | x8 | x8 | x8 | x8 | z4 ^B,,2 z2 | x8 | x8 | x8 | x8 | x8 | x8 | x8 | x8 | x8 | %36
 x8 | x8 | x8 | x8 | x8 | x8 | x8 | x8 | x8 | x8 | x8 | x8 | x8 | x8 | x8 | x8 | x8 | x8 | x8 | %55
 B,,2 z2 z4 | x8 |] %57

